svg/fluentui-system-icons/ic_fluent_tabs_16_regular.svg

<svg width="16" height="16" viewBox="0 0 16 16" fill="none" xmlns="http://www.w3.org/2000/svg">
<path d="M6.5 2C4.01472 2 2 4.01472 2 6.5V11.5002C1.39278 11.0441 1 10.3179 1 9.5V6.5C1 3.46243 3.46243 1 6.5 1H9.5C10.3179 1 11.0441 1.39278 11.5002 2H6.5ZM4.06095 6.3954C4.34069 5.02835 5.55025 4 7 4H13.5002C13.0441 3.39278 12.3179 3 11.5 3H7C4.79086 3 3 4.79086 3 7V11.5C3 12.3179 3.39278 13.0441 4 13.5002V7C4 6.79289 4.02099 6.59069 4.06095 6.3954ZM5 7.5C5 6.11929 6.11929 5 7.5 5H12.5C13.8807 5 15 6.11929 15 7.5V12.5C15 13.8807 13.8807 15 12.5 15H7.5C6.11929 15 5 13.8807 5 12.5V7.5ZM7.5 6C6.67157 6 6 6.67157 6 7.5V12.5C6 13.3284 6.67157 14 7.5 14H12.5C13.3284 14 14 13.3284 14 12.5V7.5C14 6.67157 13.3284 6 12.5 6H7.5Z" fill="#212121"/>
</svg>

<svg xmlns="http://www.w3.org/2000/svg" width="16" height="16"><path d="M6.5 2A4.5 4.5 0 0 0 2 6.5v5a2.496 2.496 0 0 1-1-2v-3A5.5 5.5 0 0 1 6.5 1h3c.818 0 1.544.393 2 1h-5ZM4.061 6.395A3.001 3.001 0 0 1 7 4h6.5a2.496 2.496 0 0 0-2-1H7a4 4 0 0 0-4 4v4.5c0 .818.393 1.544 1 2V7c0-.207.021-.41.061-.605ZM5 7.5A2.5 2.5 0 0 1 7.5 5h5A2.5 2.5 0 0 1 15 7.5v5a2.5 2.5 0 0 1-2.5 2.5h-5A2.5 2.5 0 0 1 5 12.5v-5ZM7.5 6A1.5 1.5 0 0 0 6 7.5v5A1.5 1.5 0 0 0 7.5 14h5a1.5 1.5 0 0 0 1.5-1.5v-5A1.5 1.5 0 0 0 12.5 6h-5Z"/></svg>
